X: 1
T:The Litle Bag  "Arranged by Terry Tully"
M:C
L:1/8
Q:80
C:Traditional Irish
S:Reel
K:HP
[| {g}Ad{c}de{g}f2{g}ed|
{g}fA{g}fage{g}e{A}e|
{g}Ad{c}de{g}f2{g}ed|  !
{a}gf{g}ed{g}cA{gAGAG}A2{g}Ad{c}de{g}fA{g}ed|
{g}fA{g}fage{g}e{A}e|
{g}Ad{c}de{g}fA{g}ed|  !
{a}ge{g}cd{g}ed{g}d{c}d|] [|
{ag}a2{g}af{a}gage|
{g}fA{g}fage{g}e{A}e|  !
{g}Aa{g}af{a}gaef|
{a}gf{g}ed{g}cA{gAGAG}A2{g}Aa{g}af{a}gage|
{g}fA{g}fage{g}e{A}e|  !
{g}Ad{c}de{g}fA{g}ed|
{a}ge{g}cd{g}ed{g}d{c}d|]
